X:1
T:Title
%%score 1 { ( 2 4 6 ) | ( 3 5 ) }
L:1/8
M:4/4
K:F
V:1 treble nm="Akkordion"
V:2 treble nm="Grand Piano"
V:4 treble 
V:6 treble 
V:3 bass 
V:5 bass 
V:1
 z4 z2[Q:1/4=100] (3CDE | F2 E2 F2 ^F2 | G6 (3DE^F | G2 ^F2 G2 _A2 |[M:3/4] A6 |[M:1/4] (3E^F_A | %6
[M:4/4] A2 _A2 =A2 A2 | B6 (3FGA | B2 A2 B2 =B2 |[M:3/4] c6 |[M:1/4] z2 |[M:4/4] z8 | z8 | %13
[M:7/8] z7 |[M:1/8] z |[M:4/4] z8 |[M:11/16] z11/2 |[M:5/16] z5/2 |[M:4/4] z8 | z8 |[M:3/4] z6 |] %21
V:2
 z8 | [F,A,CF]2 [G,CE]2 [A,CF]2 [A,CD^F]2 | [B,DG]2 (3[B,DG][B,DG][B,DG] [B,DG]2 (3DE^F | %3
 [B,DG]2 [A,D^F]2 [B,DG]2 [=B,DE_A]2 |[M:3/4] [CEc]2 (3[CEc][CEc][CEc] [CEc]2 |[M:1/4] E/ z/ z | %6
[M:4/4] [A,CEA]2 [=B,E_A]2 [CE=A]2 [CFA]2 | [DFB]2 (3[DFB][DFB][DFB] [DFB]2 GA | %8
 [DFB]2 [_EFA]2 [DFB]2 [DFG=B]2 |[M:3/4] [EGc]2 (3[EGc][EGc][EGc] [EGc]2 |[M:1/4] [Cc]2 | %11
[M:4/4] [Af]3 F A2 c2 | d2 c>A F3 F |[M:7/8] [Fd]>[Fd][Fd]>[Fd] [Fd]3 |[M:1/8] [Ge] | %15
[M:4/4] [Ec]>[Ec] [Ec]>[Ec] c>c d>e |[M:11/16] f/-f/-f/-f/-f/-f/-f/-f-<f |[M:5/16] A<=B^c/ | %18
[M:4/4] d6 z2 | [CAc]2 [DGB]2 [CEA]3 [B,EG] |[M:3/4] [A,F]6 |] %21
V:3
 z4 z2 (3CDE | F,,2 [C,,C,]2 [F,,F,]2 [D,,D,]2 | %2
 [G,,D,G,]2 (3[G,,D,G,][G,,D,G,][G,,D,G,] [G,,D,G,]2 [D,,D,]2 | %3
 [G,,G,]2 [D,,D,]2 [G,,G,]2 [D,,D,]2 |[M:3/4] [A,,E,A,]2 (3[A,,E,A,][A,,E,A,][A,,E,A,] [A,,E,A,]2 | %5
[M:1/4] (3z[K:treble] ^F_A |[M:4/4][K:bass] A,,2 [E,,E,]2 [A,,A,]2 [E,,E,]2 | %7
 [B,,F,B,]2 (3[B,,F,B,][B,,F,B,][B,,F,B,] [B,,F,B,]2 [F,,F,]2 | %8
 [B,,B,]2 [F,,F,]2 [B,,B,]2 [G,,G,]2 |[M:3/4] [C,C]2 (3[C,C][C,C][C,C] [C,C]2 |[M:1/4] z2 | %11
[M:4/4] [F,C]3 F, A,2 C2 | D2 C>A, F,3 [F,A,] |[M:7/8] [D,A,]>[D,A,][D,A,]>[D,A,] [G,=B,]3 | %14
[M:1/8] [G,=B,] |[M:4/4] [C,C]>[C,C] [C,C]>[C,C] [CE]>B, A,>G, |[M:11/16] z/ z/ z D>DC3/2 | %17
[M:5/16] G,<F,E,/ |[M:4/4] z z/ B,/ B,>B, A,2 G,,2 | A,,2 B,,2 C,3 C, |[M:3/4] F,6 |] %21
V:4
 x8 | x8 | x8 | x8 |[M:3/4] x6 |[M:1/4] [E,D]2 |[M:4/4] x8 | x8 | x8 |[M:3/4] x6 |[M:1/4] x2 | %11
[M:4/4] x8 | x8 |[M:7/8] x7 |[M:1/8] x |[M:4/4] x8 |[M:11/16] z .B3/2 z/ z/ z/ z/ z | %17
[M:5/16] x5/2 |[M:4/4] z z/ G/ G>G F2 [B,Bd]2 | x8 |[M:3/4] x6 |] %21
V:5
 x8 | x8 | x8 | x8 |[M:3/4] x6 |[M:1/4] E,,2[K:treble] |[M:4/4][K:bass] x8 | x8 | x8 |[M:3/4] x6 | %10
[M:1/4] x2 |[M:4/4] x8 | x8 |[M:7/8] x7 |[M:1/8] x |[M:4/4] x8 | %16
[M:11/16] F,/-F,/-F,/-F,/-F,/-F,/-F,/-F,-<F, |[M:5/16] x5/2 |[M:4/4] D,6 z2 | x8 |[M:3/4] x6 |] %21
V:6
 x8 | x8 | x8 | x8 |[M:3/4] x6 |[M:1/4] x2 |[M:4/4] x8 | x8 | x8 |[M:3/4] x6 |[M:1/4] x2 | %11
[M:4/4] x8 | x8 |[M:7/8] x7 |[M:1/8] x |[M:4/4] x8 |[M:11/16] z/ z D<BB<A |[M:5/16] x5/2 | %18
[M:4/4] x8 | x8 |[M:3/4] x6 |] %21

